src/assets/images/side-electro.svg

<svg width="133" height="595" viewBox="0 0 133 595" fill="none" xmlns="http://www.w3.org/2000/svg">
<mask id="mask0_1_4998" style="mask-type:luminance" maskUnits="userSpaceOnUse" x="0" y="0" width="238" height="595">
<path d="M-2.59883e-05 594.544L0 0L238 1.04033e-05L238 594.544L-2.59883e-05 594.544Z" fill="white"/>
</mask>
<g mask="url(#mask0_1_4998)">
<path d="M133.72 310.362C133.72 315.58 125.63 315.588 125.63 310.362C125.601 309.361 125.968 308.39 126.651 307.66C127.334 306.929 128.277 306.499 129.276 306.463L129.276 277.05L189.207 222.298L189.207 100.862C188.269 100.757 187.404 100.302 186.787 99.5861C186.169 98.8704 185.844 97.9475 185.877 97.0021C185.877 91.7841 193.967 91.7748 193.967 97.0021C193.998 97.9616 193.662 98.8968 193.027 99.6162C192.393 100.336 191.508 100.785 190.554 100.872L190.554 222.895L130.624 277.647L130.624 306.545C131.515 306.696 132.321 307.166 132.892 307.869C133.462 308.571 133.758 309.457 133.724 310.362"  stroke="#9B96B0" stroke-width="1.5"/>
<path d="M182.418 68.6467C183.348 68.7604 184.201 69.2194 184.81 69.933C185.419 70.6467 185.738 71.5631 185.705 72.5012C185.705 77.7192 177.615 77.7274 177.615 72.5012C177.584 71.5337 177.926 70.5914 178.57 69.8698C179.214 69.1481 180.11 68.7024 181.073 68.6251L181.073 61.5737L146.524 61.5737L89.6479 9.69292C87.2895 11.3016 83.1504 10.2428 83.1504 6.50526C83.1504 1.28722 91.2402 1.27902 91.2402 6.50526C91.2565 7.29719 91.0323 8.07539 90.5971 8.73672L147.05 60.2225L182.418 60.2225L182.418 68.6467Z"  stroke="#9B96B0" stroke-width="1.5"/>
<path d="M153.171 91.6932C152.259 91.5623 151.427 91.0979 150.837 90.3895C150.246 89.6811 149.937 88.7787 149.971 87.8561C149.971 82.6381 158.061 82.6299 158.061 87.8561C158.091 88.8385 157.738 89.794 157.076 90.5196C156.414 91.2452 155.496 91.6839 154.517 91.7424L154.517 180.591L62.2086 264.104L62.2086 342.527L126.741 401.335L126.961 401.54L126.961 498.858L150.616 520.943L150.616 573.21L149.268 573.21L149.268 521.526L125.612 499.442L125.612 402.134L61.0842 343.327L60.863 343.122L60.863 263.504L153.171 179.99L153.171 91.6932Z"  stroke="#9B96B0" stroke-width="1.5"/>
<path d="M110.564 520.346L110.351 520.146L110.351 410.582L83.0673 385.292C80.7295 387.009 76.4634 385.976 76.4634 382.181C76.4634 376.963 84.5532 376.955 84.5532 382.181C84.5678 382.928 84.37 383.664 83.9828 384.303L111.696 409.995L111.696 519.561L138.305 544.551L138.518 544.751L138.518 573.207L137.169 573.207L137.169 545.337L110.564 520.346Z"  stroke="#9B96B0" stroke-width="1.5"/>
<path d="M51.6222 378.767L81.0292 406.263L81.2433 406.468L81.2432 454.614C82.1901 454.709 83.0653 455.162 83.6915 455.88C84.3177 456.598 84.648 457.527 84.6154 458.48C84.6154 463.698 76.5255 463.706 76.5255 458.48C76.4942 457.528 76.825 456.599 77.4509 455.881C78.0769 455.164 78.9514 454.711 79.8977 454.615L79.8977 407.047L50.4855 379.555L50.2715 379.35L50.2715 330.921L50.9053 330.921C50.39 330.933 49.8776 330.84 49.3993 330.648C48.9209 330.455 48.4866 330.168 48.1227 329.802C47.7588 329.436 47.4729 329 47.2823 328.52C47.0917 328.04 47.0004 327.527 47.014 327.01C47.014 321.792 55.1039 321.784 55.1039 327.01C55.1167 327.526 55.025 328.04 54.8341 328.519C54.6433 328.999 54.3573 329.435 53.9935 329.8C53.6298 330.166 53.1958 330.454 52.7178 330.646C52.2397 330.839 51.7277 330.933 51.2125 330.921L51.6222 330.921L51.6222 378.767Z"  stroke="#9B96B0" stroke-width="1.5"/>
<path d="M48.8371 248.822L48.8371 291.649L16.2023 321.757L16.2023 350.515C17.1371 350.623 17.9968 351.081 18.6102 351.796C19.2237 352.511 19.546 353.431 19.5129 354.373C19.5129 359.591 11.4231 359.6 11.4231 354.373C11.392 353.411 11.7302 352.473 12.3681 351.753C13.006 351.033 13.8951 350.585 14.8526 350.501L14.8526 321.164L47.4874 291.056L47.4874 248.822L48.8371 248.822Z"  stroke="#9B96B0" stroke-width="1.5"/>
<path d="M118.526 90.0124C117.552 89.949 116.641 89.5089 115.985 88.7848C115.329 88.0608 114.979 87.1097 115.01 86.1322C115.01 80.9142 123.1 80.906 123.1 86.1322C123.132 87.0596 122.82 87.966 122.223 88.6759C121.627 89.3857 120.789 89.8485 119.871 89.9745L119.871 190.891L79.3511 227.671L79.1586 227.846L39.631 227.846L29.8904 236.448L29.8904 262.815C30.8233 262.926 31.6805 263.384 32.2919 264.099C32.9033 264.813 33.2242 265.732 33.1909 266.673C33.1909 271.891 25.101 271.899 25.101 266.673C25.0701 265.707 25.4104 264.767 26.0514 264.046C26.6925 263.326 27.5855 262.879 28.5459 262.799L28.5459 235.835L39.1292 226.493L78.6425 226.493L118.526 190.291L118.526 90.0124Z"  stroke="#9B96B0" stroke-width="1.5"/>
<path d="M99.0399 98.6665L52.0882 141.419L76.1324 163.634L76.1324 172.355C77.0204 172.508 77.8227 172.98 78.3902 173.681C78.9577 174.382 79.2517 175.266 79.2178 176.169C79.2178 181.387 71.128 181.395 71.128 176.169C71.1003 175.166 71.4697 174.194 72.1554 173.463C72.8412 172.733 73.7875 172.304 74.7878 172.27L74.7878 164.23L50.0913 141.413L97.6882 98.0683L97.6882 60.4228L121.106 60.4228L132.619 71.3328L132.619 137.78C133.519 137.922 134.336 138.39 134.915 139.095C135.494 139.8 135.795 140.693 135.762 141.605C135.762 146.823 127.672 146.831 127.672 141.605C127.642 140.612 128.003 139.647 128.677 138.919C129.351 138.19 130.284 137.757 131.274 137.711L131.274 71.9135L120.568 61.774L99.04 61.774L99.0399 98.6665Z"  stroke="#9B96B0" stroke-width="1.5"/>
<path d="M70.0774 64.6528L70.0774 78.9588C71.0235 79.055 71.8977 79.5079 72.523 80.2256C73.1484 80.9434 73.4781 81.8724 73.4454 82.8246C73.4454 88.0426 65.3556 88.0518 65.3556 82.8246C65.324 81.872 65.6546 80.943 66.2806 80.2253C66.9066 79.5077 67.7813 79.055 68.7277 78.9588L68.7277 64.0444L88.8366 46.1886L99.4947 46.1886C100.259 41.7636 107.519 42.0129 107.519 46.9642C107.519 51.9822 100.037 52.1802 99.464 47.5398L89.3476 47.5398L70.0774 64.6528Z"  stroke="#9B96B0" stroke-width="1.5"/>
<path d="M56.2132 52.4209L70.1062 40.4582L70.1062 1.54553L71.4549 1.54553L71.4549 41.0778L57.5629 53.0405L57.5629 89.8356C58.4977 89.9443 59.3574 90.4017 59.9708 91.1167C60.5843 91.8317 60.9066 92.7519 60.8735 93.6942C60.8735 98.9123 52.7837 98.9205 52.7837 93.6942C52.7526 92.7318 53.0908 91.7941 53.7287 91.0739C54.3666 90.3536 55.2557 89.9057 56.2132 89.8222L56.2132 52.4209Z"  stroke="#9B96B0" stroke-width="1.5"/>
<path d="M24.0481 1.79731L13.4126 11.3634C13.9486 12.0643 14.2277 12.9286 14.2031 13.8113C14.2031 19.0293 6.11328 19.0386 6.11328 13.8113C6.11328 9.89214 10.6723 8.91132 12.9477 10.874L23.5976 1.29459L24.0481 1.79731Z"  stroke="#9B96B0" stroke-width="1.5"/>
<path d="M87.6428 140.313L106.931 157.911L106.931 173.882L94.2734 186.032C94.613 186.393 94.8783 186.818 95.054 187.282C95.2297 187.745 95.3124 188.239 95.2975 188.735C95.2975 193.953 87.2076 193.962 87.2076 188.735C87.2076 185.276 90.7641 184.108 93.1624 185.236L105.583 173.306L105.583 158.508L86.2942 140.907L86.2942 127.089L99.1089 115.053C98.7597 114.432 98.5829 113.729 98.5969 113.016C98.5969 107.798 106.687 107.79 106.687 113.016C106.687 116.851 102.318 117.868 99.9998 116.067L87.6428 127.672L87.6428 140.313Z"  stroke="#9B96B0" stroke-width="1.5"/>
<path d="M128.817 359.981C128.817 365.199 120.727 365.207 120.727 359.981C120.713 359.244 120.904 358.517 121.28 357.884L92.6081 332.087L92.6082 268.596L140.589 224.575C140.197 223.932 139.997 223.19 140.012 222.437C140.012 217.219 148.101 217.211 148.101 222.437C148.101 226.22 143.849 227.259 141.509 225.56L93.9568 269.191L93.9568 331.48L122.187 356.884C124.519 355.14 128.816 356.166 128.816 359.977"  stroke="#9B96B0" stroke-width="1.5"/>
<path d="M164.749 497.58C164.749 502.798 156.659 502.807 156.659 497.58C156.649 496.904 156.809 496.236 157.126 495.639L148.235 487.54L148.235 406.447L116.902 377.88C114.533 379.42 110.476 378.347 110.476 374.646C110.476 369.428 118.565 369.42 118.565 374.646C118.584 375.466 118.343 376.271 117.876 376.945L149.362 405.649L149.582 405.854L149.582 486.948L157.984 494.6C160.28 492.706 164.749 493.695 164.749 497.58Z"  stroke="#9B96B0" stroke-width="1.5"/>
<path d="M44.1724 244.882C44.1724 239.664 52.2622 239.656 52.2622 244.882C52.2622 250.108 44.1724 250.109 44.1724 244.882Z"  stroke="#9B96B0" stroke-width="1.5"/>
<path d="M70.0047 198.339C70.0047 203.557 61.9148 203.566 61.9148 198.339C61.9005 197.591 62.0986 196.855 62.4862 196.216L40.5986 176.832L40.5986 98.5021C39.6629 98.3943 38.802 97.9372 38.1877 97.2219C37.5733 96.5065 37.2506 95.5855 37.2838 94.6424C37.2838 89.4244 45.3737 89.4162 45.3737 94.6424C45.4051 95.6044 45.0676 96.5418 44.4306 97.2621C43.7935 97.9825 42.9052 98.431 41.9483 98.5154L41.9483 176.223L63.4027 195.227C65.7406 193.512 70.0057 194.544 70.0057 198.339"  stroke="#9B96B0" stroke-width="1.5"/>
<path d="M8.08984 41.5884C8.1125 42.4705 7.83115 43.3335 7.29314 44.0322L27.9489 62.6954L28.1711 62.9006L28.1711 195.753L45.6717 211.596L70.1461 211.596C70.7758 207.023 78.1929 207.225 78.1929 212.229C78.1929 217.194 70.869 217.439 70.1594 212.947L45.1485 212.947L26.8183 196.353L26.8183 63.4988L6.26092 44.9248C3.87288 46.3119 -3.29238e-07 45.2038 -1.712e-07 41.5884C5.68873e-08 36.3703 8.08984 36.3621 8.08984 41.5884Z"  stroke="#9B96B0" stroke-width="1.5"/>
<path d="M199.598 28.5613C199.598 33.5167 192.306 33.7701 191.569 29.3092L147.383 29.3092L117.912 2.04229L118.828 1.04916L147.91 27.957L191.547 27.957C192.149 23.3535 199.598 23.5464 199.598 28.5613Z"  stroke="#9B96B0" stroke-width="1.5"/>
<path d="M29.6169 375.078C29.6293 375.787 29.4526 376.486 29.1049 377.104L64.1636 408.814L64.1636 455.803L95.1057 483.812L95.1057 537.829C95.9876 537.988 96.7825 538.461 97.3441 539.16C97.9058 539.86 98.1964 540.739 98.1624 541.636C98.1624 546.854 90.0726 546.862 90.0726 541.636C90.059 541.137 90.1435 540.641 90.3215 540.175C90.4994 539.71 90.7672 539.283 91.1095 538.921C91.4519 538.559 91.8621 538.268 92.3167 538.065C92.7714 537.862 93.2615 537.751 93.7591 537.737L93.7591 484.409L62.817 456.4L62.817 409.411L28.2191 378.121C25.9038 379.93 21.5271 378.923 21.5271 375.078C21.5271 369.86 29.6169 369.851 29.6169 375.078Z"  stroke="#9B96B0" stroke-width="1.5"/>
<path d="M36.3901 413.956C36.423 414.832 36.1464 415.691 35.6089 416.382C35.0714 417.074 34.3076 417.553 33.4522 417.735L33.4522 451.458L82.0168 495.629L82.0168 521.265C82.8987 521.424 83.6936 521.896 84.2553 522.596C84.8169 523.295 85.1075 524.175 85.0736 525.072C85.0736 530.29 76.9837 530.299 76.9837 525.072C76.9701 524.573 77.0546 524.077 77.2326 523.611C77.4105 523.145 77.6783 522.719 78.0206 522.357C78.363 521.995 78.7732 521.704 79.2278 521.501C79.6825 521.298 80.1726 521.186 80.6702 521.173L80.6702 496.226L32.1035 452.056L32.1035 417.863C31.5955 417.865 31.0924 417.764 30.624 417.567C30.1556 417.37 29.7315 417.08 29.3768 416.716C29.0221 416.352 28.744 415.92 28.5591 415.445C28.3742 414.971 28.2862 414.465 28.3003 413.956C28.3003 408.738 36.3901 408.73 36.3901 413.956Z"  stroke="#9B96B0" stroke-width="1.5"/>
</g>
</svg>

<svg xmlns="http://www.w3.org/2000/svg" width="133" height="595" fill="none"><mask id="a" width="238" height="595" x="0" y="0" maskUnits="userSpaceOnUse" style="mask-type:luminance"><path fill="#fff" d="M0 594.544V0h238v594.544H0Z"/></mask><g stroke="#9B96B0" stroke-width="1.5" mask="url(#a)"><path d="M133.72 310.362c0 5.218-8.09 5.226-8.09 0a3.793 3.793 0 0 1 1.021-2.702 3.777 3.777 0 0 1 2.625-1.197V277.05l59.931-54.752V100.862a3.753 3.753 0 0 1-3.33-3.86c0-5.218 8.09-5.227 8.09 0a3.766 3.766 0 0 1-3.413 3.87v122.023l-59.93 54.752v28.898a3.723 3.723 0 0 1 3.1 3.817M182.418 68.647c.93.113 1.783.572 2.392 1.286.609.714.928 1.63.895 2.568 0 5.218-8.09 5.226-8.09 0a3.77 3.77 0 0 1 .955-2.631 3.757 3.757 0 0 1 2.503-1.245v-7.051h-34.549L89.648 9.693c-2.358 1.609-6.498.55-6.498-3.188 0-5.218 8.09-5.226 8.09 0a3.913 3.913 0 0 1-.643 2.232l56.453 51.486h35.368v8.424Z"/><path d="M153.171 91.693a3.74 3.74 0 0 1-3.2-3.837c0-5.218 8.09-5.226 8.09 0a3.78 3.78 0 0 1-.985 2.664 3.769 3.769 0 0 1-2.559 1.222v88.849l-92.308 83.513v78.423l64.532 58.808.22.205v97.318l23.655 22.085v52.267h-1.348v-51.684l-23.656-22.084v-97.308l-64.528-58.807-.221-.205v-79.618l92.308-83.514V91.693Z"/><path d="m110.564 520.346-.213-.2V410.582l-27.284-25.29c-2.337 1.717-6.604.684-6.604-3.111 0-5.218 8.09-5.226 8.09 0a3.946 3.946 0 0 1-.57 2.122l27.713 25.692v109.566l26.609 24.99.213.2v28.456h-1.349v-27.87l-26.605-24.991ZM51.622 378.767l29.407 27.496.214.205v48.146a3.745 3.745 0 0 1 2.449 1.266 3.76 3.76 0 0 1 .923 2.6c0 5.218-8.09 5.226-8.09 0-.03-.952.3-1.881.926-2.599a3.752 3.752 0 0 1 2.447-1.266v-47.568l-29.412-27.492-.214-.205v-48.429h.633a3.805 3.805 0 0 1-3.891-3.911c0-5.218 8.09-5.226 8.09 0a3.822 3.822 0 0 1-2.386 3.636c-.478.193-.99.287-1.506.275h.41v47.846ZM48.837 248.822v42.827l-32.635 30.108v28.758a3.739 3.739 0 0 1 2.408 1.281c.614.715.936 1.635.903 2.577 0 5.218-8.09 5.227-8.09 0a3.758 3.758 0 0 1 3.43-3.872v-29.337l32.634-30.108v-42.234h1.35Z"/><path d="M118.526 90.012a3.758 3.758 0 0 1-2.541-1.227 3.773 3.773 0 0 1-.975-2.653c0-5.218 8.09-5.226 8.09 0a3.75 3.75 0 0 1-.877 2.544 3.734 3.734 0 0 1-2.352 1.299V190.89l-40.52 36.78-.192.175H39.63l-9.74 8.602v26.367a3.753 3.753 0 0 1 3.3 3.858c0 5.218-8.09 5.226-8.09 0a3.759 3.759 0 0 1 3.445-3.874v-26.964l10.583-9.342h39.514l39.883-36.202V90.012Z"/><path d="M99.04 98.666 52.088 141.42l24.044 22.215v8.721c.888.153 1.69.625 2.258 1.326.568.701.862 1.585.828 2.488 0 5.218-8.09 5.226-8.09 0a3.789 3.789 0 0 1 3.66-3.899v-8.04L50.09 141.413l47.597-43.345V60.423h23.418l11.513 10.91v66.447c.9.142 1.717.61 2.296 1.315.579.705.88 1.598.847 2.51 0 5.218-8.09 5.226-8.09 0a3.786 3.786 0 0 1 3.602-3.894V71.913l-10.706-10.139H99.04v36.892ZM70.077 64.653v14.306c.947.096 1.82.549 2.446 1.267a3.76 3.76 0 0 1 .922 2.599c0 5.218-8.09 5.227-8.09 0a3.765 3.765 0 0 1 .926-2.6 3.75 3.75 0 0 1 2.447-1.266V64.044L88.837 46.19h10.658c.764-4.425 8.024-4.176 8.024.775 0 5.018-7.482 5.216-8.055.576H89.348l-19.27 17.113ZM56.213 52.42l13.893-11.962V1.546h1.349v39.532L57.563 53.04v36.796a3.742 3.742 0 0 1 2.408 1.28c.613.716.936 1.636.903 2.578 0 5.218-8.09 5.227-8.09 0-.031-.962.307-1.9.945-2.62a3.754 3.754 0 0 1 2.484-1.252V52.421ZM24.048 1.797l-10.635 9.566c.536.701.815 1.566.79 2.448 0 5.218-8.09 5.228-8.09 0 0-3.919 4.56-4.9 6.835-2.937l10.65-9.58.45.503Z"/><path d="m87.643 140.313 19.288 17.598v15.971l-12.658 12.15a3.776 3.776 0 0 1 1.025 2.703c0 5.218-8.09 5.227-8.09 0 0-3.459 3.556-4.627 5.954-3.499l12.421-11.93v-14.798l-19.289-17.601v-13.818l12.815-12.036a3.995 3.995 0 0 1-.512-2.037c0-5.218 8.09-5.226 8.09 0 0 3.835-4.369 4.852-6.687 3.051l-12.357 11.605v12.641ZM128.817 359.981c0 5.218-8.09 5.226-8.09 0a3.96 3.96 0 0 1 .553-2.097l-28.672-25.797v-63.491l47.981-44.021a3.956 3.956 0 0 1-.577-2.138c0-5.218 8.089-5.226 8.089 0 0 3.783-4.252 4.822-6.592 3.123l-47.552 43.631v62.289l28.23 25.404c2.332-1.744 6.629-.718 6.629 3.093M164.749 497.58c0 5.218-8.09 5.227-8.09 0-.01-.676.15-1.344.467-1.941l-8.891-8.099v-81.093l-31.333-28.567c-2.369 1.54-6.426.467-6.426-3.234 0-5.218 8.089-5.226 8.089 0a3.879 3.879 0 0 1-.689 2.299l31.486 28.704.22.205v81.094l8.402 7.652c2.296-1.894 6.765-.905 6.765 2.98ZM44.172 244.882c0-5.218 8.09-5.226 8.09 0s-8.09 5.227-8.09 0ZM70.005 198.339c0 5.218-8.09 5.227-8.09 0a3.947 3.947 0 0 1 .571-2.123L40.6 176.832v-78.33a3.743 3.743 0 0 1-2.411-1.28 3.756 3.756 0 0 1-.904-2.58c0-5.218 8.09-5.226 8.09 0 .031.962-.306 1.9-.943 2.62a3.754 3.754 0 0 1-2.483 1.253v77.708l21.455 19.004c2.338-1.715 6.603-.683 6.603 3.112"/><path d="M8.09 41.588a3.844 3.844 0 0 1-.797 2.444L27.95 62.695l.222.206v132.852l17.5 15.843h24.475c.63-4.573 8.047-4.371 8.047.633 0 4.965-7.324 5.21-8.034.718H45.15l-18.33-16.594V63.499L6.26 44.925C3.873 46.312 0 45.204 0 41.588c0-5.218 8.09-5.226 8.09 0ZM199.598 28.561c0 4.956-7.292 5.21-8.029.748h-44.186L117.912 2.042l.916-.993 29.082 26.908h43.637c.602-4.604 8.051-4.41 8.051.604ZM29.617 375.078a3.989 3.989 0 0 1-.512 2.026l35.059 31.71v46.989l30.942 28.009v54.017a3.718 3.718 0 0 1 3.056 3.807c0 5.218-8.09 5.226-8.09 0a3.802 3.802 0 0 1 2.245-3.571 3.8 3.8 0 0 1 1.442-.328v-53.328L62.817 456.4v-46.989l-34.598-31.29c-2.315 1.809-6.692.802-6.692-3.043 0-5.218 8.09-5.227 8.09 0Z"/><path d="M36.39 413.956a3.723 3.723 0 0 1-2.938 3.779v33.723l48.565 44.171v25.636a3.714 3.714 0 0 1 2.238 1.331 3.73 3.73 0 0 1 .819 2.476c0 5.218-8.09 5.227-8.09 0a3.802 3.802 0 0 1 2.244-3.571 3.781 3.781 0 0 1 1.442-.328v-24.947l-48.567-44.17v-34.193a3.778 3.778 0 0 1-2.726-1.147 3.806 3.806 0 0 1-1.076-2.76c0-5.218 8.09-5.226 8.09 0Z"/></g></svg>
